X:12438
T:Operator's Reel
M:2/4
L:1/16
Q:108
C:Don Messer
R:Breakdown
Z:<cfalt@trytel.com> www.trytel.com/~cfalt/Fiddle/CFtunes1.abc
K:D
A2|:"D"A2BA F2AA|defg a2f2|"A7"g2bg e2g2|cdec A4|!
"D"A2BA F2A2|defg a2f2|"A7"gbge cABc|"D"d2f2d2 z2:|!
|:({efg}a2)ba f2af|d2fd A2f2|"A7"efge cABc|"D"defg a4|!
({efg}a2)ba f2af|d2fd A2f2|"A7"efge cABc|"D"d2f2d2 z2:|!
